X:1
T:MacNamara's Band
F:http://www.cam.ac.uk/societies/round/music/j5.abc
K:G
M:6/8
L:1/8
P:A
|"D7"d3|"G"B2B B2B|B2B B2B|B2B A2G|D3-D2D|"D7"c2c c2c|"G"B2B B2B|"A7"A2G F2G|"D7"A3 d3
|"G"B2B B2B|B2B B2B|B2B A2G|D3-D2B|"C"c2c B2A|"G"d2B G2E|"D7"D2c B2A|"G"G3 "D7"DEF||
P:B
|"G"G3 G3-|G2e d2B|"Am"A3-A3|E3 A2G|"D7"F2d ^c2d|e2d c2A|"G"B3-B3-|"G"B3 "D7"DEF
|"G"G3 G3-|G2e d2B|"Am"A3-A3|E3 A2G|"D7"F2d ^c2d|e2d c2A|"G"G3-G3-|G3||


